X: 28932
T: Naked And Bare
R: jig
M: 6/8
K: Eminor
|:F|G2 A B2 e|ede BAG|A2 A B2 e|BAG E2 F|
G2 A B2 e|ede BAG|E2 g g2 e|dBG E2:|
|:f|g2 g g2 b|aba agf|g2 g g2 b|agf e2 f|
g2 g g2 b|aba agf|e2 d g2 e|dBG E2:|

